X:130
T: Liscannor
S: Treoir
N: as "gan ainm"
Z: B. Black
M: 6/8
L: 1/8
R: jig
K: G
BGG Add | BdB BAG | BGG ADD | GBA GED |
BGG AFF | BGG ABc | dge fed | cAF G3 :|
GBd g3 | fed cAF | GBd g3 | faf g3 |
faf gfg | fed cAF | faf gfe | ded dcA :|
GBB Bcd | cAA AFD | GBB BAG | BdB cBA |
GBB Bcd | cAA ABc | dge fed | cAF G3 :|
